app/dist/common/images/senestech.svg

<svg fill="none" height="18" viewBox="0 0 18 18" width="18" xmlns="http://www.w3.org/2000/svg" xmlns:xlink="http://www.w3.org/1999/xlink"><linearGradient id="a" gradientUnits="userSpaceOnUse" x1="9" x2="9" y1="0" y2="18"><stop offset="0" stop-color="#87b212"/><stop offset=".383302" stop-color="#1e5620"/><stop offset="1" stop-color="#1b3918"/></linearGradient><path d="m0 0h18v18h-18z" fill="url(#a)"/><path d="m9.0731 14c-1.2296 0-2.22094-.245-2.94737-.7278-.36021-.2314-.65031-.5332-.84599-.8801-.19567-.3469-.29122-.7289-.27864-1.1139v-.4131c-.00315-.0485.00573-.0971.02607-.1424.02034-.0454.05168-.0866.09196-.1209s.08859-.0609.14176-.0781c.05316-.0173.10999-.0247.16674-.0218h.76308c.05668-.0029.11344.0045.16653.0217.05308.0173.10129.0439.14144.0782.04016.0344.07133.0756.09148.121.02015.0453.02881.0939.02541.1423v.3604c-.0053.2082.05046.4143.16222.5994.11175.1851.27593.3433.47757.4602.44819.2849 1.09131.4273 1.91104.4273.7331 0 1.2896-.1282 1.6545-.3803.1707-.1157.307-.2642.398-.4335.0909-.1693.1337-.3546.1251-.5407.0097-.2376-.0735-.4711-.2366-.6637-.2207-.2324-.4945-.4238-.8047-.5626-.53929-.25045-1.09567-.47304-1.66612-.66657-.62549-.20896-1.23729-.44669-1.83274-.71215-.44831-.20169-.83692-.48811-1.13629-.83748-.31049-.39004-.46748-.85453-.44819-1.32603 0-.81612.34156-1.46275 1.013-1.91995.67145-.4572 1.55283-.66942 2.66913-.66942 1.21131 0 2.27781.25068 2.98921.74491.354.23993.6376.54719.8282.89732s.2943.73346.2811 1.11948v.29341c.0032.04853-.0171.09707-.0374.14245-.0203.04539-.0517.08658-.092.12088-.0402.0343-.0886.06092-.1417.07814-.0532.01721-.11.02461-.1668.02173h-.778c-.0568.00288-.1136-.00452-.1668-.02173-.0531-.01722-.1015-.04384-.1417-.07814-.0403-.0343-.0717-.07549-.092-.12088-.0203-.04538-.0292-.09392-.0261-.14245v-.23928c.0058-.20941-.0465-.41701-.1524-.60587-.106-.18886-.2627-.35363-.4574-.48087-.4215-.29341-1.11812-.44723-1.89286-.44723-.66645 0-1.18961.11394-1.5345.33898-.16525.11107-.29604.25514-.38087.41955-.08484.16442-.12111.34413-.10564.52334-.01281.23285.06902.46232.23159.64948.20044.20696.45116.37414.73476.48996.34822.14955.89804.3518 1.63613.59678.64249.21775 1.26699.47233 1.86939.762.4706.22805.8803.53754 1.2029.9087.3295.39204.5013.86484.4899 1.34734.0144.3761-.0745.7499-.2597 1.0912-.1852.3414-.4615.6409-.8066.8744-.6981.4757-1.6578.7164-2.8591.7164z" fill="#fff"/></svg>

<!-- by TradingView --><svg width="18" height="18" viewBox="0 0 18 18" fill="none" xmlns="http://www.w3.org/2000/svg">
<rect width="18" height="18" fill="url(#paint0_linear_229_4483)"/>
<path d="M9.0731 14C7.8435 14 6.85216 13.755 6.12573 13.2722C5.76552 13.0408 5.47542 12.739 5.27974 12.3921C5.08407 12.0452 4.98852 11.6632 5.0011 11.2782V10.8651C4.99795 10.8166 5.00683 10.768 5.02717 10.7227C5.04751 10.6773 5.07885 10.6361 5.11913 10.6018C5.15941 10.5675 5.20772 10.5409 5.26089 10.5237C5.31405 10.5064 5.37088 10.499 5.42763 10.5019H6.19071C6.24739 10.499 6.30415 10.5064 6.35724 10.5236C6.41032 10.5409 6.45853 10.5675 6.49868 10.6018C6.53884 10.6362 6.57001 10.6774 6.59016 10.7228C6.61031 10.7681 6.61897 10.8167 6.61557 10.8651V11.2255C6.61027 11.4337 6.66603 11.6398 6.77779 11.8249C6.88954 12.01 7.05372 12.1682 7.25536 12.2851C7.70355 12.57 8.34667 12.7124 9.1664 12.7124C9.8995 12.7124 10.456 12.5842 10.8209 12.3321C10.9916 12.2164 11.1279 12.0679 11.2189 11.8986C11.3098 11.7293 11.3526 11.544 11.344 11.3579C11.3537 11.1203 11.2705 10.8868 11.1074 10.6942C10.8867 10.4618 10.6129 10.2704 10.3027 10.1316C9.76341 9.88115 9.20703 9.65856 8.63658 9.46503C8.01109 9.25607 7.39929 9.01834 6.80384 8.75288C6.35553 8.55119 5.96692 8.26477 5.66755 7.9154C5.35706 7.52536 5.20007 7.06087 5.21936 6.58937C5.21936 5.77325 5.56092 5.12662 6.23236 4.66942C6.90381 4.21222 7.78519 4 8.90149 4C10.1128 4 11.1793 4.25068 11.8907 4.74491C12.2447 4.98484 12.5283 5.2921 12.7189 5.64223C12.9095 5.99236 13.0132 6.37569 13 6.76171V7.05512C13.0032 7.10365 12.9829 7.15219 12.9626 7.19757C12.9423 7.24296 12.9109 7.28415 12.8706 7.31845C12.8304 7.35275 12.782 7.37937 12.7289 7.39659C12.6757 7.4138 12.6189 7.4212 12.5621 7.41832H11.7841C11.7273 7.4212 11.6705 7.4138 11.6173 7.39659C11.5642 7.37937 11.5158 7.35275 11.4756 7.31845C11.4353 7.28415 11.4039 7.24296 11.3836 7.19757C11.3633 7.15219 11.3544 7.10365 11.3575 7.05512V6.81584C11.3633 6.60643 11.311 6.39883 11.2051 6.20997C11.0991 6.02111 10.9424 5.85634 10.7477 5.7291C10.3262 5.43569 9.62958 5.28187 8.85484 5.28187C8.18839 5.28187 7.66523 5.39581 7.32034 5.62085C7.15509 5.73192 7.0243 5.87599 6.93947 6.0404C6.85463 6.20482 6.81836 6.38453 6.83383 6.56374C6.82102 6.79659 6.90285 7.02606 7.06542 7.21322C7.26586 7.42018 7.51658 7.58736 7.80018 7.70318C8.1484 7.85273 8.69822 8.05498 9.43631 8.29996C10.0788 8.51771 10.7033 8.77229 11.3057 9.06196C11.7763 9.29001 12.186 9.5995 12.5086 9.97066C12.8381 10.3627 13.0099 10.8355 12.9985 11.318C13.0129 11.6941 12.924 12.0679 12.7388 12.4092C12.5536 12.7506 12.2773 13.0501 11.9322 13.2836C11.2341 13.7593 10.2744 14 9.0731 14Z" fill="white"/>
<defs>
<linearGradient id="paint0_linear_229_4483" x1="9" y1="0" x2="9" y2="18" gradientUnits="userSpaceOnUse">
<stop stop-color="#87B212"/>
<stop offset="0.383302" stop-color="#1E5620"/>
<stop offset="1" stop-color="#1B3918"/>
</linearGradient>
</defs>
</svg>
